images/56890.svg

<?xml version="1.0" encoding="UTF-8"?>
<svg xmlns="http://www.w3.org/2000/svg" xmlns:xlink="http://www.w3.org/1999/xlink" width="300pt" height="300pt" viewBox="0 0 300 300" version="1.1">
<defs>
<g>
<symbol overflow="visible" id="glyph0-0">
<path style="stroke:none;" d="M 0.640625 2.296875 L 0.640625 -9.171875 L 7.140625 -9.171875 L 7.140625 2.296875 Z M 1.375 1.578125 L 6.421875 1.578125 L 6.421875 -8.4375 L 1.375 -8.4375 Z M 1.375 1.578125 "/>
</symbol>
<symbol overflow="visible" id="glyph0-1">
<path style="stroke:none;" d="M 5.125 -8.609375 C 4.1875 -8.609375 3.441406 -8.257812 2.890625 -7.5625 C 2.347656 -6.875 2.078125 -5.929688 2.078125 -4.734375 C 2.078125 -3.535156 2.347656 -2.585938 2.890625 -1.890625 C 3.441406 -1.203125 4.1875 -0.859375 5.125 -0.859375 C 6.050781 -0.859375 6.785156 -1.203125 7.328125 -1.890625 C 7.878906 -2.585938 8.15625 -3.535156 8.15625 -4.734375 C 8.15625 -5.929688 7.878906 -6.875 7.328125 -7.5625 C 6.785156 -8.257812 6.050781 -8.609375 5.125 -8.609375 Z M 5.125 -9.65625 C 6.445312 -9.65625 7.503906 -9.207031 8.296875 -8.3125 C 9.097656 -7.414062 9.5 -6.222656 9.5 -4.734375 C 9.5 -3.234375 9.097656 -2.035156 8.296875 -1.140625 C 7.503906 -0.253906 6.445312 0.1875 5.125 0.1875 C 3.789062 0.1875 2.722656 -0.253906 1.921875 -1.140625 C 1.128906 -2.035156 0.734375 -3.234375 0.734375 -4.734375 C 0.734375 -6.222656 1.128906 -7.414062 1.921875 -8.3125 C 2.722656 -9.207031 3.789062 -9.65625 5.125 -9.65625 Z M 5.125 -9.65625 "/>
</symbol>
<symbol overflow="visible" id="glyph0-2">
<path style="stroke:none;" d="M 1.28125 -9.484375 L 3 -9.484375 L 7.203125 -1.546875 L 7.203125 -9.484375 L 8.453125 -9.484375 L 8.453125 0 L 6.71875 0 L 2.515625 -7.921875 L 2.515625 0 L 1.28125 0 Z M 1.28125 -9.484375 "/>
</symbol>
<symbol overflow="visible" id="glyph0-3">
<path style="stroke:none;" d="M 1.28125 -9.484375 L 2.5625 -9.484375 L 2.5625 -5.59375 L 7.21875 -5.59375 L 7.21875 -9.484375 L 8.5 -9.484375 L 8.5 0 L 7.21875 0 L 7.21875 -4.515625 L 2.5625 -4.515625 L 2.5625 0 L 1.28125 0 Z M 1.28125 -9.484375 "/>
</symbol>
<symbol overflow="visible" id="glyph1-0">
<path style="stroke:none;" d="M 0.546875 1.9375 L 0.546875 -7.75 L 6.046875 -7.75 L 6.046875 1.9375 Z M 1.171875 1.328125 L 5.4375 1.328125 L 5.4375 -7.140625 L 1.171875 -7.140625 Z M 1.171875 1.328125 "/>
</symbol>
<symbol overflow="visible" id="glyph1-1">
<path style="stroke:none;" d="M 5.0625 -6.890625 L 5.0625 -3.90625 L 8.046875 -3.90625 L 8.046875 -2.984375 L 5.0625 -2.984375 L 5.0625 0 L 4.15625 0 L 4.15625 -2.984375 L 1.171875 -2.984375 L 1.171875 -3.90625 L 4.15625 -3.90625 L 4.15625 -6.890625 Z M 5.0625 -6.890625 "/>
</symbol>
<symbol overflow="visible" id="glyph1-2">
<path style="stroke:none;" d="M 0.53125 -3.453125 L 3.4375 -3.453125 L 3.4375 -2.578125 L 0.53125 -2.578125 Z M 0.53125 -3.453125 "/>
</symbol>
<symbol overflow="visible" id="glyph1-3">
<path style="stroke:none;" d="M 2.109375 -0.90625 L 5.890625 -0.90625 L 5.890625 0 L 0.8125 0 L 0.8125 -0.90625 C 1.21875 -1.332031 1.773438 -1.90625 2.484375 -2.625 C 3.203125 -3.34375 3.648438 -3.804688 3.828125 -4.015625 C 4.171875 -4.410156 4.410156 -4.742188 4.546875 -5.015625 C 4.691406 -5.285156 4.765625 -5.550781 4.765625 -5.8125 C 4.765625 -6.238281 4.613281 -6.582031 4.3125 -6.84375 C 4.019531 -7.113281 3.628906 -7.25 3.140625 -7.25 C 2.804688 -7.25 2.445312 -7.1875 2.0625 -7.0625 C 1.6875 -6.945312 1.285156 -6.769531 0.859375 -6.53125 L 0.859375 -7.625 C 1.296875 -7.800781 1.703125 -7.9375 2.078125 -8.03125 C 2.460938 -8.125 2.8125 -8.171875 3.125 -8.171875 C 3.957031 -8.171875 4.617188 -7.960938 5.109375 -7.546875 C 5.609375 -7.128906 5.859375 -6.570312 5.859375 -5.875 C 5.859375 -5.539062 5.796875 -5.226562 5.671875 -4.9375 C 5.546875 -4.644531 5.320312 -4.296875 5 -3.890625 C 4.90625 -3.785156 4.617188 -3.484375 4.140625 -2.984375 C 3.660156 -2.492188 2.984375 -1.800781 2.109375 -0.90625 Z M 2.109375 -0.90625 "/>
</symbol>
</g>
</defs>
<g id="surface17649">
<rect x="0" y="0" width="300" height="300" style="fill:rgb(100%,100%,100%);fill-opacity:1;stroke:none;"/>
<path style="fill:none;stroke-width:1.2;stroke-linecap:butt;stroke-linejoin:miter;stroke:rgb(100%,0%,0%);stroke-opacity:1;stroke-miterlimit:10;" d="M 74.523438 207.777344 L 85.757812 194.34375 "/>
<path style="fill:none;stroke-width:1.2;stroke-linecap:butt;stroke-linejoin:miter;stroke:rgb(0%,0%,0%);stroke-opacity:1;stroke-miterlimit:10;" d="M 85.757812 194.34375 L 96.992188 180.90625 "/>
<path style="fill:none;stroke-width:1.2;stroke-linecap:butt;stroke-linejoin:miter;stroke:rgb(100%,0%,0%);stroke-opacity:1;stroke-miterlimit:10;" d="M 68.203125 202.492188 L 79.4375 189.058594 "/>
<path style="fill:none;stroke-width:1.2;stroke-linecap:butt;stroke-linejoin:miter;stroke:rgb(0%,0%,0%);stroke-opacity:1;stroke-miterlimit:10;" d="M 79.4375 189.058594 L 90.667969 175.621094 "/>
<path style=" stroke:none;fill-rule:nonzero;fill:rgb(100%,100%,100%);fill-opacity:1;" d="M 60.363281 197.136719 L 71.363281 197.136719 L 71.363281 213.136719 L 60.363281 213.136719 Z M 60.363281 197.136719 "/>
<g style="fill:rgb(100%,0%,0%);fill-opacity:1;">
  <use xlink:href="#glyph0-1" x="60.363281" y="209.512695"/>
</g>
<path style="fill:none;stroke-width:1.2;stroke-linecap:butt;stroke-linejoin:miter;stroke:rgb(0%,0%,0%);stroke-opacity:1;stroke-miterlimit:10;" d="M 93.832031 178.265625 L 128.335938 184.285156 "/>
<path style="fill:none;stroke-width:1.2;stroke-linecap:butt;stroke-linejoin:miter;stroke:rgb(0%,0%,0%);stroke-opacity:1;stroke-miterlimit:10;" d="M 93.832031 178.265625 L 81.792969 145.371094 "/>
<path style="fill:none;stroke-width:1.2;stroke-linecap:butt;stroke-linejoin:miter;stroke:rgb(0%,0%,0%);stroke-opacity:1;stroke-miterlimit:10;" d="M 128.335938 184.285156 L 140.375 217.179688 "/>
<path style="fill:none;stroke-width:1.2;stroke-linecap:butt;stroke-linejoin:miter;stroke:rgb(0%,0%,0%);stroke-opacity:1;stroke-miterlimit:10;" d="M 137.28125 184.742188 L 146.910156 211.058594 "/>
<path style="fill:none;stroke-width:1.2;stroke-linecap:butt;stroke-linejoin:miter;stroke:rgb(0%,0%,0%);stroke-opacity:1;stroke-miterlimit:10;" d="M 150.804688 157.414062 L 128.335938 184.285156 "/>
<path style="fill:none;stroke-width:1.2;stroke-linecap:butt;stroke-linejoin:miter;stroke:rgb(0%,0%,0%);stroke-opacity:1;stroke-miterlimit:10;" d="M 140.375 217.179688 L 174.878906 223.199219 "/>
<path style="fill:none;stroke-width:1.2;stroke-linecap:butt;stroke-linejoin:miter;stroke:rgb(0%,0%,0%);stroke-opacity:1;stroke-miterlimit:10;" d="M 174.878906 223.199219 L 186.113281 209.765625 "/>
<path style="fill:none;stroke-width:1.2;stroke-linecap:butt;stroke-linejoin:miter;stroke:rgb(0%,0%,100%);stroke-opacity:1;stroke-miterlimit:10;" d="M 186.113281 209.765625 L 197.347656 196.328125 "/>
<path style="fill:none;stroke-width:1.2;stroke-linecap:butt;stroke-linejoin:miter;stroke:rgb(0%,0%,0%);stroke-opacity:1;stroke-miterlimit:10;" d="M 170.804688 215.226562 L 179.789062 204.480469 "/>
<path style="fill:none;stroke-width:1.2;stroke-linecap:butt;stroke-linejoin:miter;stroke:rgb(0%,0%,100%);stroke-opacity:1;stroke-miterlimit:10;" d="M 179.789062 204.480469 L 188.777344 193.730469 "/>
<path style="fill:none;stroke-width:1.2;stroke-linecap:butt;stroke-linejoin:miter;stroke:rgb(0%,0%,100%);stroke-opacity:1;stroke-miterlimit:10;" d="M 197.347656 196.328125 L 214.601562 199.339844 "/>
<path style="fill:none;stroke-width:1.2;stroke-linecap:butt;stroke-linejoin:miter;stroke:rgb(100%,0%,0%);stroke-opacity:1;stroke-miterlimit:10;" d="M 214.601562 199.339844 L 231.851562 202.351562 "/>
<path style="fill:none;stroke-width:1.2;stroke-linecap:butt;stroke-linejoin:miter;stroke:rgb(0%,0%,100%);stroke-opacity:1;stroke-miterlimit:10;" d="M 197.347656 196.328125 L 191.328125 179.882812 "/>
<path style="fill:none;stroke-width:1.2;stroke-linecap:butt;stroke-linejoin:miter;stroke:rgb(0%,0%,0%);stroke-opacity:1;stroke-miterlimit:10;" d="M 191.328125 179.882812 L 185.308594 163.4375 "/>
<path style=" stroke:none;fill-rule:nonzero;fill:rgb(100%,100%,100%);fill-opacity:1;" d="M 187.347656 186.828125 L 207.347656 186.828125 L 207.347656 205.828125 L 187.347656 205.828125 Z M 187.347656 186.828125 "/>
<g style="fill:rgb(0%,0%,100%);fill-opacity:1;">
  <use xlink:href="#glyph0-2" x="187.347656" y="202.023438"/>
</g>
<g style="fill:rgb(0%,0%,100%);fill-opacity:1;">
  <use xlink:href="#glyph1-1" x="197.317383" y="197.140625"/>
</g>
<path style=" stroke:none;fill-rule:nonzero;fill:rgb(100%,100%,100%);fill-opacity:1;" d="M 224.851562 192.851562 L 239.851562 192.851562 L 239.851562 211.851562 L 224.851562 211.851562 Z M 224.851562 192.851562 "/>
<g style="fill:rgb(100%,0%,0%);fill-opacity:1;">
  <use xlink:href="#glyph0-1" x="224.851562" y="208.046875"/>
</g>
<g style="fill:rgb(100%,0%,0%);fill-opacity:1;">
  <use xlink:href="#glyph1-2" x="235.341797" y="203.164062"/>
</g>
<path style="fill:none;stroke-width:1.2;stroke-linecap:butt;stroke-linejoin:miter;stroke:rgb(0%,0%,0%);stroke-opacity:1;stroke-miterlimit:10;" d="M 185.308594 163.4375 L 207.777344 136.5625 "/>
<path style="fill:none;stroke-width:1.2;stroke-linecap:butt;stroke-linejoin:miter;stroke:rgb(0%,0%,0%);stroke-opacity:1;stroke-miterlimit:10;" d="M 185.308594 163.4375 L 150.804688 157.414062 "/>
<path style="fill:none;stroke-width:1.2;stroke-linecap:butt;stroke-linejoin:miter;stroke:rgb(0%,0%,0%);stroke-opacity:1;stroke-miterlimit:10;" d="M 180.441406 170.953125 L 152.835938 166.136719 "/>
<path style="fill:none;stroke-width:1.2;stroke-linecap:butt;stroke-linejoin:miter;stroke:rgb(0%,0%,0%);stroke-opacity:1;stroke-miterlimit:10;" d="M 207.777344 136.5625 L 242.28125 142.585938 "/>
<path style="fill:none;stroke-width:1.2;stroke-linecap:butt;stroke-linejoin:miter;stroke:rgb(0%,0%,0%);stroke-opacity:1;stroke-miterlimit:10;" d="M 212.644531 129.046875 L 240.25 133.863281 "/>
<path style="fill:none;stroke-width:1.2;stroke-linecap:butt;stroke-linejoin:miter;stroke:rgb(0%,0%,0%);stroke-opacity:1;stroke-miterlimit:10;" d="M 195.738281 103.671875 L 207.777344 136.5625 "/>
<path style="fill:none;stroke-width:1.2;stroke-linecap:butt;stroke-linejoin:miter;stroke:rgb(0%,0%,0%);stroke-opacity:1;stroke-miterlimit:10;" d="M 242.28125 142.585938 L 264.75 115.714844 "/>
<path style="fill:none;stroke-width:1.2;stroke-linecap:butt;stroke-linejoin:miter;stroke:rgb(0%,0%,0%);stroke-opacity:1;stroke-miterlimit:10;" d="M 264.75 115.714844 L 252.710938 82.820312 "/>
<path style="fill:none;stroke-width:1.2;stroke-linecap:butt;stroke-linejoin:miter;stroke:rgb(0%,0%,0%);stroke-opacity:1;stroke-miterlimit:10;" d="M 255.804688 115.257812 L 246.175781 88.941406 "/>
<path style="fill:none;stroke-width:1.2;stroke-linecap:butt;stroke-linejoin:miter;stroke:rgb(0%,0%,0%);stroke-opacity:1;stroke-miterlimit:10;" d="M 252.710938 82.820312 L 218.207031 76.800781 "/>
<path style="fill:none;stroke-width:1.2;stroke-linecap:butt;stroke-linejoin:miter;stroke:rgb(0%,0%,0%);stroke-opacity:1;stroke-miterlimit:10;" d="M 218.207031 76.800781 L 195.738281 103.671875 "/>
<path style="fill:none;stroke-width:1.2;stroke-linecap:butt;stroke-linejoin:miter;stroke:rgb(0%,0%,0%);stroke-opacity:1;stroke-miterlimit:10;" d="M 222.28125 84.773438 L 204.308594 106.269531 "/>
<path style="fill:none;stroke-width:1.2;stroke-linecap:butt;stroke-linejoin:miter;stroke:rgb(0%,0%,0%);stroke-opacity:1;stroke-miterlimit:10;" d="M 195.738281 103.671875 L 161.234375 97.648438 "/>
<path style="fill:none;stroke-width:1.2;stroke-linecap:butt;stroke-linejoin:miter;stroke:rgb(0%,0%,0%);stroke-opacity:1;stroke-miterlimit:10;" d="M 150.804688 157.414062 L 144.785156 140.96875 "/>
<path style="fill:none;stroke-width:1.2;stroke-linecap:butt;stroke-linejoin:miter;stroke:rgb(0%,0%,100%);stroke-opacity:1;stroke-miterlimit:10;" d="M 144.785156 140.96875 L 138.765625 124.519531 "/>
<path style=" stroke:none;fill-rule:nonzero;fill:rgb(100%,100%,100%);fill-opacity:1;" d="M 110.765625 114.519531 L 138.765625 114.519531 L 138.765625 134.519531 L 110.765625 134.519531 Z M 110.765625 114.519531 "/>
<g style="fill:rgb(0%,0%,100%);fill-opacity:1;">
  <use xlink:href="#glyph0-3" x="110.765625" y="126.895508"/>
</g>
<g style="fill:rgb(0%,0%,100%);fill-opacity:1;">
  <use xlink:href="#glyph1-3" x="120.788086" y="131.77832"/>
</g>
<g style="fill:rgb(0%,0%,100%);fill-opacity:1;">
  <use xlink:href="#glyph0-2" x="127.856445" y="126.895508"/>
</g>
<path style="fill:none;stroke-width:1.2;stroke-linecap:butt;stroke-linejoin:miter;stroke:rgb(0%,0%,0%);stroke-opacity:1;stroke-miterlimit:10;" d="M 81.792969 145.371094 L 104.261719 118.5 "/>
<path style="fill:none;stroke-width:1.2;stroke-linecap:butt;stroke-linejoin:miter;stroke:rgb(0%,0%,0%);stroke-opacity:1;stroke-miterlimit:10;" d="M 77.71875 137.398438 L 95.691406 115.898438 "/>
<path style="fill:none;stroke-width:1.2;stroke-linecap:butt;stroke-linejoin:miter;stroke:rgb(0%,0%,0%);stroke-opacity:1;stroke-miterlimit:10;" d="M 47.289062 139.347656 L 81.792969 145.371094 "/>
<path style="fill:none;stroke-width:1.2;stroke-linecap:butt;stroke-linejoin:miter;stroke:rgb(0%,0%,0%);stroke-opacity:1;stroke-miterlimit:10;" d="M 104.261719 118.5 L 92.222656 85.605469 "/>
<path style="fill:none;stroke-width:1.2;stroke-linecap:butt;stroke-linejoin:miter;stroke:rgb(0%,0%,0%);stroke-opacity:1;stroke-miterlimit:10;" d="M 92.222656 85.605469 L 57.71875 79.582031 "/>
<path style="fill:none;stroke-width:1.2;stroke-linecap:butt;stroke-linejoin:miter;stroke:rgb(0%,0%,0%);stroke-opacity:1;stroke-miterlimit:10;" d="M 87.355469 93.121094 L 59.75 88.304688 "/>
<path style="fill:none;stroke-width:1.2;stroke-linecap:butt;stroke-linejoin:miter;stroke:rgb(0%,0%,0%);stroke-opacity:1;stroke-miterlimit:10;" d="M 57.71875 79.582031 L 35.25 106.457031 "/>
<path style="fill:none;stroke-width:1.2;stroke-linecap:butt;stroke-linejoin:miter;stroke:rgb(0%,0%,0%);stroke-opacity:1;stroke-miterlimit:10;" d="M 35.25 106.457031 L 47.289062 139.347656 "/>
<path style="fill:none;stroke-width:1.2;stroke-linecap:butt;stroke-linejoin:miter;stroke:rgb(0%,0%,0%);stroke-opacity:1;stroke-miterlimit:10;" d="M 44.195312 106.914062 L 53.824219 133.226562 "/>
</g>
</svg>

<svg xmlns="http://www.w3.org/2000/svg" xmlns:xlink="http://www.w3.org/1999/xlink" width="300pt" height="300pt" viewBox="0 0 300 300"><defs><symbol overflow="visible"><path d="M.64 2.297v-11.47h6.5v11.47zm.735-.72h5.047V-8.436H1.375zm0 0"/></symbol><symbol overflow="visible" id="a"><path d="M5.125-8.61c-.938 0-1.684.352-2.234 1.047-.542.688-.812 1.633-.812 2.83 0 1.198.27 2.147.813 2.842.55.687 1.297 1.03 2.235 1.03.926 0 1.66-.343 2.203-1.03.55-.696.828-1.645.828-2.844 0-1.196-.277-2.14-.828-2.829-.543-.695-1.277-1.046-2.203-1.046zm0-1.046c1.32 0 2.38.45 3.172 1.344.8.898 1.203 2.09 1.203 3.578 0 1.5-.402 2.7-1.203 3.593C7.504-.255 6.445.186 5.125.186c-1.336 0-2.402-.44-3.203-1.328C1.13-2.036.734-3.235.734-4.735c0-1.49.395-2.68 1.188-3.579.8-.894 1.867-1.343 3.203-1.343zm0 0"/></symbol><symbol overflow="visible" id="b"><path d="M1.28-9.484H3l4.203 7.937v-7.937h1.25V0H6.72L2.515-7.922V0H1.28zm0 0"/></symbol><symbol overflow="visible" id="e"><path d="M1.28-9.484h1.282v3.89H7.22v-3.89H8.5V0H7.22v-4.516H2.562V0H1.28zm0 0"/></symbol><symbol overflow="visible"><path d="M.547 1.938V-7.75h5.5v9.688zm.625-.61h4.266v-8.47H1.171zm0 0"/></symbol><symbol overflow="visible" id="c"><path d="M5.063-6.89v2.984h2.984v.922H5.062V0h-.906v-2.984H1.172v-.922h2.984V-6.89zm0 0"/></symbol><symbol overflow="visible" id="d"><path d="M.53-3.453h2.907v.875H.53zm0 0"/></symbol><symbol overflow="visible" id="f"><path d="M2.11-.906h3.78V0H.814v-.906c.406-.426.96-1 1.67-1.72.72-.718 1.165-1.18 1.345-1.39.344-.394.582-.726.72-1 .143-.27.218-.535.218-.796 0-.426-.153-.77-.454-1.032-.292-.27-.683-.406-1.17-.406-.337 0-.697.063-1.08.188-.374.117-.777.292-1.203.53v-1.093c.437-.176.843-.313 1.218-.406.383-.095.735-.142 1.047-.142.832 0 1.492.21 1.984.625.5.418.75.977.75 1.672 0 .336-.063.648-.188.938-.125.292-.352.64-.672 1.046-.094.105-.383.406-.86.906L2.11-.906zm0 0"/></symbol></defs><g><path fill="#fff" d="M0 0h300v300H0z"/><path d="M74.523 207.777l11.235-13.433" stroke-width="1.2" stroke="#f00" stroke-miterlimit="10" fill="none"/><path d="M85.758 194.344l11.234-13.438" stroke-width="1.2" stroke="#000" stroke-miterlimit="10" fill="none"/><path d="M68.203 202.492l11.234-13.433" stroke-width="1.2" stroke="#f00" stroke-miterlimit="10" fill="none"/><path d="M79.438 189.06l11.23-13.44" stroke-width="1.2" stroke="#000" stroke-miterlimit="10" fill="none"/><path d="M60.363 197.137h11v16h-11zm0 0" fill="#fff"/><use xlink:href="#a" x="60.363" y="209.513" fill="#f00"/><path d="M93.832 178.266l34.504 6.02M93.832 178.266l-12.04-32.895M128.336 184.285l12.04 32.895M137.28 184.742l9.63 26.317M150.805 157.414l-22.47 26.87M140.375 217.18l34.504 6.02M174.88 223.2l11.233-13.434" stroke-width="1.2" stroke="#000" stroke-miterlimit="10" fill="none"/><path d="M186.113 209.766l11.235-13.438" stroke-width="1.2" stroke="#00f" stroke-miterlimit="10" fill="none"/><path d="M170.805 215.227l8.984-10.747" stroke-width="1.2" stroke="#000" stroke-miterlimit="10" fill="none"/><path d="M179.79 204.48l8.987-10.75M197.348 196.328l17.254 3.012" stroke-width="1.2" stroke="#00f" stroke-miterlimit="10" fill="none"/><path d="M214.602 199.34l17.25 3.012" stroke-width="1.2" stroke="#f00" stroke-miterlimit="10" fill="none"/><path d="M197.348 196.328l-6.02-16.445" stroke-width="1.2" stroke="#00f" stroke-miterlimit="10" fill="none"/><path d="M191.328 179.883l-6.02-16.446" stroke-width="1.2" stroke="#000" stroke-miterlimit="10" fill="none"/><path d="M187.348 186.828h20v19h-20zm0 0" fill="#fff"/><use xlink:href="#b" x="187.348" y="202.023" fill="#00f"/><use xlink:href="#c" x="197.317" y="197.141" fill="#00f"/><path d="M224.852 192.852h15v19h-15zm0 0" fill="#fff"/><use xlink:href="#a" x="224.852" y="208.047" fill="#f00"/><use xlink:href="#d" x="235.342" y="203.164" fill="#f00"/><path d="M185.31 163.438l22.467-26.875M185.31 163.438l-34.505-6.024M180.44 170.953l-27.604-4.816M207.777 136.563l34.504 6.023M212.645 129.047l27.605 4.816M195.738 103.672l12.04 32.89M242.28 142.586l22.47-26.87M264.75 115.715L252.71 82.82M255.805 115.258l-9.63-26.317M252.71 82.82l-34.503-6.02M218.207 76.8l-22.47 26.872M222.28 84.773l-17.97 21.497M195.738 103.672l-34.504-6.024M150.805 157.414l-6.02-16.445" stroke-width="1.2" stroke="#000" stroke-miterlimit="10" fill="none"/><path d="M144.785 140.97l-6.02-16.45" stroke-width="1.2" stroke="#00f" stroke-miterlimit="10" fill="none"/><path d="M110.766 114.52h28v20h-28zm0 0" fill="#fff"/><use xlink:href="#e" x="110.766" y="126.896" fill="#00f"/><use xlink:href="#f" x="120.788" y="131.778" fill="#00f"/><use xlink:href="#b" x="127.856" y="126.896" fill="#00f"/><path d="M81.793 145.37l22.47-26.87M77.72 137.398l17.97-21.5M47.29 139.348l34.503 6.023M104.262 118.5l-12.04-32.895M92.223 85.605L57.72 79.582M87.355 93.12L59.75 88.306M57.72 79.582l-22.47 26.875M35.25 106.457l12.04 32.89M44.195 106.914l9.63 26.313" stroke-width="1.2" stroke="#000" stroke-miterlimit="10" fill="none"/></g></svg>
